Project/img/ShopingCart.svg

<svg xmlns="http://www.w3.org/2000/svg" xmlns:xlink="http://www.w3.org/1999/xlink" preserveAspectRatio="xMidYMid" width="17.62" height="14.031" viewBox="0 0 17.62 14.031">
  <defs>
    <style>
      .cls-1 {
        fill: #fff;
        fill-rule: evenodd;
      }
    </style>
  </defs>
  <path d="M17.536,3.100 L17.537,3.101 L15.062,8.601 L15.062,8.601 C14.940,8.872 14.676,9.065 14.365,9.085 L14.365,9.085 L7.237,9.560 L7.649,10.737 L15.410,10.737 C16.321,10.737 17.060,11.476 17.060,12.387 C17.060,13.299 16.321,14.037 15.410,14.037 C14.499,14.037 13.760,13.299 13.760,12.387 L6.060,12.387 C6.060,13.299 5.321,14.037 4.410,14.037 C3.499,14.037 2.760,13.299 2.760,12.387 C2.760,11.476 3.499,10.737 4.410,10.737 L5.901,10.737 L2.725,1.662 L0.835,1.662 C0.379,1.662 0.010,1.293 0.010,0.837 C0.010,0.382 0.379,0.012 0.835,0.012 L3.310,0.012 C3.670,0.012 3.973,0.244 4.086,0.566 L4.089,0.565 L4.569,1.937 L16.785,1.937 C17.241,1.937 17.610,2.306 17.610,2.762 C17.610,2.883 17.583,2.997 17.536,3.100 ZM5.147,3.587 L6.672,7.944 L13.761,7.472 L15.509,3.587 L5.147,3.587 Z" class="cls-1"/>
</svg>

<svg xmlns="http://www.w3.org/2000/svg" width="17.62" height="14.031" preserveAspectRatio="xMidYMid"><defs><style>.cls-1 { fill: #fff; fill-rule: evenodd; }</style></defs><path d="M17.54 3.1l-2.48 5.5c-.12.27-.38.46-.7.5l-7.12.46.4 1.18h7.77c.92 0 1.66.74 1.66 1.65 0 .9-.74 1.64-1.65 1.64-.9 0-1.64-.74-1.64-1.65h-7.7c0 .9-.74 1.64-1.65 1.64-.9 0-1.64-.74-1.64-1.65 0-.92.74-1.66 1.65-1.66h1.5L2.72 1.66H.83c-.44 0-.8-.37-.8-.82C0 .38.37 0 .8 0h2.5c.35 0 .65.24.77.57l.47 1.37h12.21c.46 0 .83.37.83.82 0 .12-.02.24-.06.34zm-12.4.5l1.53 4.34 7.1-.47L15.5 3.6H5.16z" class="cls-1"/></svg>
